X:1
T:Title
%%score 1 2
L:1/8
Q:1/4=87
M:6/8
K:Bb
V:1 treble nm="Grand Piano, Soprano"
V:2 bass nm="Choir Pad, Beautiful Eastertide"
V:1
 [DF][DF][DF] [DF][DF][B,D] | [DF][EG][EB] [EG] [DF]2 | [DF][Ec][Ec] [Ec][Ec][Fd] | %3
w: By~Joseph~Lincoln~Hall * * * * *|||
 [Ec][Dc][DB] [EG] [DF]2 | [DF][DF][DF] [DF][DF][B,D] | [DF][EG][EG] [EB] [Fd]2 | %6
w: |||
 [Fd][Ed][Ec] [EA] [EG]2 | [EA] [DB]2- [DB]3- | [DB] [DF]2- [DF]/ z/ [DF][DF] | %9
w: |||
 [DF] [EG]2 [EB] [Dd]2 | [Fd][Ed][Ec] [EA] [EG]2 | [FA][Dc][DB] [EG] [DF]2- | %12
w: |||
 [DF] [DF]2- [DF][DF][DF] | [DF] [EG]2 [EB] [Dd]2 | ddB G A2 | B [DG]2- [DG]3- | %16
w: ||||
 [DG] [DF]2- [DF]/ z/ [DF][DF] | [DF] [EG]2 [EB] [Dd]2 | [Fd][Ed][Ec] [EA] [EG]2 | %19
w: |||
 [FA][Dc][DB] [EG] [DF]2- | [DF] [FB]2- [FB][FB][FB] | [FB] [=EB]2 [EB] [Fd]2 | %22
w: |||
 [Fd][Ed][Ec] [EA] [EG]2 | [EA] [DB]2- [DB]3- | [DB]3 z3 |] %25
w: |||
V:2
 [B,,B,][B,,B,][B,,B,] [B,,B,][B,,B,][B,,F,] | [B,,B,][E,B,][E,G,] [E,B,] [B,,B,]2 | %2
 [B,,B,][F,A,][F,A,] [F,A,][F,A,][F,A,] | [F,A,][B,,B,][B,,F,] [B,,B,] [B,,B,]2 | %4
 [B,,B,][B,,B,][B,,B,] [B,,B,][B,,B,][B,,F,] | [B,,B,][E,B,][E,B,] [E,G,] [B,,B,]2 | %6
 [B,,B,][F,A,][F,A,] [F,C] [F,C]2 | [F,C] [B,,B,]2- [B,,B,]3- | %8
 [B,,B,] [B,,B,]2- [B,,B,][B,,B,][B,,B,] | [B,,B,] [B,,B,]2 [B,,G,] [B,,F,]2 | %10
 [B,,B,][F,A,][F,A,] [F,C] [F,C]2 | [F,C][B,,B,][B,,F,] [B,,B,] [B,,B,]2- | %12
 [B,,B,] [B,,B,]2- [B,,B,][B,,B,][B,,B,] | [B,,B,] [B,,B,]2 [B,,G,] [B,,F,]2 | DDB, G, A,2 | %15
 B, [G,B,]2- [G,B,]3- | [G,B,] [B,,B,]2- [B,,B,][B,,B,][B,,B,] | %17
 [B,,B,] [B,,B,]2 [B,,G,] [B,,F,]2 | [B,,B,][F,A,][F,A,] [F,C] [F,C]2 | %19
 [F,C][B,,B,][B,,F,] [B,,B,] [B,,B,]2- | [B,,B,] [B,D]2- [B,D][_A,D][A,D] | %21
 [_A,D] [G,_D]2 [^F,D] [=F,B,]2 | [F,B,][F,A,][F,A,] [F,C] [F,C]2 | [F,C] [B,,B,]2- [B,,B,]3- | %24
 [B,,B,]3 z3 |] %25

